; HEADER_BLOCK_START
; generated by OrcaSlicer 2.2.0 on 2024-12-26 at 00:58:53
; total layer number: 250
; filament_density: 1.27
; filament_diameter: 1.75
; max_z_height: 50.00
; HEADER_BLOCK_END

; THUMBNAIL_BLOCK_START

;
; THUMBNAIL_BLOCK_END

; THUMBNAIL_BLOCK_START

;
; THUMBNAIL_BLOCK_END

; external perimeters extrusion width = 0.40mm
; perimeters extrusion width = 0.48mm
; infill extrusion width = 0.40mm
; solid infill extrusion width = 0.60mm
; top infill extrusion width = 0.44mm
; support material extrusion width = 0.45mm
; first layer extrusion width = 0.60mm

; EXECUTABLE_BLOCK_START
EXCLUDE_OBJECT_DEFINE NAME=Куб_id_0_copy_0 CENTER=120,115.5 POLYGON=[[95,90.5],[145,90.5],[145,140.5],[95,140.5],[95,90.5]]
M73 P0 R2647
;TYPE:Custom
START_PRINT EXTRUDER_TEMP=175 BED_TEMP=0 CHAMBER_TEMP=0
G90
G21
M83 ; use relative distances for extrusion
; filament start gcode
SET_PRESSURE_ADVANCE ADVANCE=0.031; Override pressure advance value
M106 S0 ; disable fan
;LAYER_CHANGE
;Z:0.2
;HEIGHT:0.2

G1 E-.4 F4800 ; retract
TIMELAPSE_TAKE_FRAME
;_SET_FAN_SPEED_CHANGING_LAYER
SET_VELOCITY_LIMIT ACCEL=200 ; adjust acceleration
; printing object Куб id:0 copy 0
EXCLUDE_OBJECT_START NAME=Куб_id_0_copy_0
G1 X133.016 Y140 F1200 ; move to first perimeter point
G1 Z.2 F600 ; move to first perimeter point
G1 E.4 F4800 ;  ; unretract
;TYPE:Outer wall
;WIDTH:0.599999
G1 F600
G1 X95.5 Y140 E1.68564 ; perimeter
G1 X95.5 Y91 E2.20165 ; perimeter
G1 X144.5 Y91 E2.20165 ; perimeter
G1 X144.5 Y140 E2.20165 ; perimeter
G1 X133.036 Y140 E.51511 ; perimeter
G1 E-.28 F4800 ; retract
;WIPE_START
G1 F600
G1 X132.036 Y140 E-.12 ; wipe and retract
;WIPE_END
G1 X96.475 Y91.975
G1 E.4 F4800 ;  ; unretract
;TYPE:Bottom surface
G1 F600
G1 X96.475 Y139.025 E2.02948 ; infill
G1 X143.525 Y139.025 E2.02948 ; infill
M73 P0 R2646
G1 X143.525 Y91.975 E2.02948 ; infill
M73 P0 R2646
G1 X96.495 Y91.975 E2.02862 ; infill
G1 E-.28 F4800 ; retract
;WIPE_START
G1 F600
G1 X97.495 Y91.975 E-.12 ; wipe and retract
;WIPE_END
G1 X98.703 Y94.203
G1 E.4 F4800 ;  ; unretract
G1 F600
G1 X98.703 Y136.797 E1.83725 ; infill
G1 X141.297 Y136.797 E1.83725 ; infill
G1 X141.297 Y94.203 E1.83725 ; infill
G1 X98.723 Y94.203 E1.83639 ; infill
G1 E-.28 F4800 ; retract
;WIPE_START
G1 F600
G1 X99.723 Y94.203 E-.12 ; wipe and retract
;WIPE_END
G1 X100.932 Y96.432
G1 E.4 F4800 ;  ; unretract
G1 F600
G1 X100.932 Y134.568 E1.64502 ; infill
G1 X139.068 Y134.568 E1.64502 ; infill
G1 X139.068 Y96.432 E1.64502 ; infill
G1 X100.952 Y96.432 E1.64415 ; infill
G1 E-.28 F4800 ; retract
;WIPE_START
G1 F600
G1 X101.952 Y96.432 E-.12 ; wipe and retract
;WIPE_END
G1 X103.16 Y98.66
G1 E.4 F4800 ;  ; unretract
G1 F600
G1 X103.16 Y132.34 E1.45278 ; infill
G1 X136.84 Y132.34 E1.45278 ; infill
G1 X136.84 Y98.66 E1.45278 ; infill
G1 X103.18 Y98.66 E1.45192 ; infill
G1 E-.28 F4800 ; retract
;WIPE_START
G1 F600
G1 X104.18 Y98.66 E-.12 ; wipe and retract
;WIPE_END
G1 X105.388 Y100.888
G1 E.4 F4800 ;  ; unretract
G1 F600
G1 X105.388 Y130.112 E1.26055 ; infill
M73 P0 R2645
G1 X134.612 Y130.112 E1.26055 ; infill
M73 P0 R2645
G1 X134.612 Y100.888 E1.26055 ; infill
G1 X105.408 Y100.888 E1.25968 ; infill
G1 E-.28 F4800 ; retract
;WIPE_START
G1 F600
G1 X106.408 Y100.888 E-.12 ; wipe and retract
;WIPE_END
G1 X107.616 Y103.116
G1 E.4 F4800 ;  ; unretract
G1 F600
G1 X107.616 Y127.884 E1.06831 ; infill
G1 X132.384 Y127.884 E1.06831 ; infill
G1 X132.384 Y103.116 E1.06831 ; infill
G1 X107.636 Y103.116 E1.06745 ; infill
G1 E-.28 F4800 ; retract
;WIPE_START
G1 F600
G1 X108.636 Y103.116 E-.12 ; wipe and retract
;WIPE_END
G1 X109.845 Y105.345
G1 E.4 F4800 ;  ; unretract
G1 F600
G1 X109.845 Y125.655 E.87608 ; infill
G1 X130.155 Y125.655 E.87608 ; infill
G1 X130.155 Y105.345 E.87608 ; infill
G1 X109.865 Y105.345 E.87522 ; infill
G1 E-.28 F4800 ; retract
;WIPE_START
G1 F600
G1 X110.865 Y105.345 E-.12 ; wipe and retract
;WIPE_END
G1 X112.073 Y107.573
G1 E.4 F4800 ;  ; unretract
G1 F600
G1 X112.073 Y123.427 E.68384 ; infill
G1 X127.927 Y123.427 E.68384 ; infill
G1 X127.927 Y107.573 E.68384 ; infill
G1 X112.093 Y107.573 E.68298 ; infill
G1 E-.28 F4800 ; retract
;WIPE_START
G1 F600
G1 X113.093 Y107.573 E-.12 ; wipe and retract
;WIPE_END
G1 X114.301 Y109.801
G1 E.4 F4800 ;  ; unretract
G1 F600
G1 X114.301 Y121.199 E.49161 ; infill
G1 X125.699 Y121.199 E.49161 ; infill
G1 X125.699 Y109.801 E.49161 ; infill
G1 X114.321 Y109.801 E.49075 ; infill
G1 E-.28 F4800 ; retract
;WIPE_START
G1 F600
G1 X115.321 Y109.801 E-.12 ; wipe and retract
;WIPE_END
G1 X116.53 Y112.03
G1 E.4 F4800 ;  ; unretract
G1 F600
G1 X116.53 Y118.97 E.29938 ; infill
G1 X123.47 Y118.97 E.29938 ; infill
G1 X123.47 Y112.03 E.29938 ; infill
G1 X116.55 Y112.03 E.29851 ; infill
G1 E-.28 F4800 ; retract
;WIPE_START
G1 F600
G1 X117.55 Y112.03 E-.12 ; wipe and retract
;WIPE_END
G1 X122.356 Y117.856
G1 E.4 F4800 ;  ; unretract
G1 F600
G1 X122.356 Y113.144 E.20326 ; infill
G1 X117.644 Y113.144 E.20326 ; infill
G1 X117.644 Y117.856 E.20326 ; infill
G1 X122.336 Y117.856 E.2024 ; infill
G1 E-.28 F4800 ; retract
;WIPE_START
G1 F600
G1 X121.336 Y117.856 E-.12 ; wipe and retract
;WIPE_END
G1 X124.584 Y120.084
G1 E.4 F4800 ;  ; unretract
G1 F600
G1 X124.584 Y110.916 E.39549 ; infill
G1 X115.416 Y110.916 E.39549 ; infill
G1 X115.416 Y120.084 E.39549 ; infill
G1 X124.564 Y120.084 E.39463 ; infill
G1 E-.28 F4800 ; retract
;WIPE_START
G1 F600
G1 X123.564 Y120.084 E-.12 ; wipe and retract
;WIPE_END
G1 X126.813 Y122.313
G1 E.4 F4800 ;  ; unretract
G1 F600
G1 X126.813 Y108.687 E.58773 ; infill
G1 X113.187 Y108.687 E.58773 ; infill
G1 X113.187 Y122.313 E.58773 ; infill
G1 X126.793 Y122.313 E.58686 ; infill
G1 E-.28 F4800 ; retract
;WIPE_START
G1 F600
G1 X125.793 Y122.313 E-.12 ; wipe and retract
;WIPE_END
G1 X129.041 Y124.541
G1 E.4 F4800 ;  ; unretract
G1 F600
G1 X129.041 Y106.459 E.77996 ; infill
G1 X110.959 Y106.459 E.77996 ; infill
M73 P0 R2644
G1 X110.959 Y124.541 E.77996 ; infill
M73 P0 R2644
G1 X129.021 Y124.541 E.7791 ; infill
G1 E-.28 F4800 ; retract
;WIPE_START
G1 F600
G1 X128.021 Y124.541 E-.12 ; wipe and retract
;WIPE_END
G1 X131.269 Y126.769
G1 E.4 F4800 ;  ; unretract
G1 F600
G1 X131.269 Y104.231 E.9722 ; infill
G1 X108.731 Y104.231 E.9722 ; infill
G1 X108.731 Y126.769 E.9722 ; infill
G1 X131.249 Y126.769 E.97133 ; infill
G1 E-.28 F4800 ; retract
;WIPE_START
G1 F600
G1 X130.249 Y126.769 E-.12 ; wipe and retract
;WIPE_END
G1 X133.498 Y128.998
G1 E.4 F4800 ;  ; unretract
G1 F600
G1 X133.498 Y102.002 E1.16443 ; infill
G1 X106.502 Y102.002 E1.16443 ; infill
G1 X106.502 Y128.998 E1.16443 ; infill
G1 X133.478 Y128.998 E1.16357 ; infill
G1 E-.28 F4800 ; retract
;WIPE_START
G1 F600
G1 X132.478 Y128.998 E-.12 ; wipe and retract
;WIPE_END
G1 X135.726 Y131.226
G1 E.4 F4800 ;  ; unretract
G1 F600
G1 X135.726 Y99.774 E1.35666 ; infill
G1 X104.274 Y99.774 E1.35666 ; infill
G1 X104.274 Y131.226 E1.35666 ; infill
G1 X135.706 Y131.226 E1.3558 ; infill
G1 E-.28 F4800 ; retract
;WIPE_START
G1 F600
G1 X134.706 Y131.226 E-.12 ; wipe and retract
;WIPE_END
G1 X137.954 Y133.454
G1 E.4 F4800 ;  ; unretract
G1 F600
G1 X137.954 Y97.546 E1.5489 ; infill
G1 X102.046 Y97.546 E1.5489 ; infill
G1 X102.046 Y133.454 E1.5489 ; infill
G1 X137.934 Y133.454 E1.54804 ; infill
G1 E-.28 F4800 ; retract
;WIPE_START
G1 F600
G1 X136.934 Y133.454 E-.12 ; wipe and retract
;WIPE_END
G1 X140.183 Y135.683
G1 E.4 F4800 ;  ; unretract
G1 F600
G1 X140.183 Y95.317 E1.74113 ; infill
G1 X99.817 Y95.317 E1.74113 ; infill
M73 P0 R2643
G1 X99.817 Y135.683 E1.74113 ; infill
M73 P0 R2643
G1 X140.163 Y135.683 E1.74027 ; infill
G1 E-.28 F4800 ; retract
;WIPE_START
G1 F600
G1 X139.163 Y135.683 E-.12 ; wipe and retract
;WIPE_END
G1 X142.411 Y137.911
G1 E.4 F4800 ;  ; unretract
G1 F600
G1 X142.411 Y93.089 E1.93337 ; infill
G1 X97.589 Y93.089 E1.93337 ; infill
G1 X97.589 Y137.911 E1.93337 ; infill
G1 X142.391 Y137.911 E1.9325 ; infill
G1 E-.28 F4800 ; retract
;WIPE_START
G1 F600
G1 X141.391 Y137.911 E-.12 ; wipe and retract
;WIPE_END
G1 X97.032 Y138.468
G1 E.4 F4800 ;  ; unretract
G1 F600
G1 X142.968 Y138.468 E1.98142 ; infill
G1 X142.968 Y92.532 E1.98142 ; infill
G1 X97.032 Y92.532 E1.98142 ; infill
G1 X97.032 Y138.448 E1.98056 ; infill
G1 E-.28 F4800 ; retract
;WIPE_START
G1 F600
G1 X97.032 Y137.448 E-.12 ; wipe and retract
;WIPE_END
G1 X99.26 Y136.24
G1 E.4 F4800 ;  ; unretract
G1 F600
G1 X140.74 Y136.24 E1.78919 ; infill
G1 X140.74 Y94.76 E1.78919 ; infill
M73 P0 R2642
G1 X99.26 Y94.76 E1.78919 ; infill
M73 P0 R2642
G1 X99.26 Y136.22 E1.78833 ; infill
G1 E-.28 F4800 ; retract
;WIPE_START
G1 F600
G1 X99.26 Y135.22 E-.12 ; wipe and retract
;WIPE_END
G1 X101.489 Y134.011
G1 E.4 F4800 ;  ; unretract
G1 F600
G1 X138.511 Y134.011 E1.59696 ; infill
G1 X138.511 Y96.989 E1.59696 ; infill
G1 X101.489 Y96.989 E1.59696 ; infill
G1 X101.489 Y133.991 E1.59609 ; infill
G1 E-.28 F4800 ; retract
;WIPE_START
G1 F600
G1 X101.489 Y132.991 E-.12 ; wipe and retract
;WIPE_END
G1 X103.717 Y131.783
G1 E.4 F4800 ;  ; unretract
G1 F600
G1 X136.283 Y131.783 E1.40472 ; infill
G1 X136.283 Y99.217 E1.40472 ; infill
G1 X103.717 Y99.217 E1.40472 ; infill
G1 X103.717 Y131.763 E1.40386 ; infill
G1 E-.28 F4800 ; retract
;WIPE_START
G1 F600
G1 X103.717 Y130.763 E-.12 ; wipe and retract
;WIPE_END
G1 X105.945 Y129.555
G1 E.4 F4800 ;  ; unretract
G1 F600
G1 X134.055 Y129.555 E1.21249 ; infill
G1 X134.055 Y101.445 E1.21249 ; infill
G1 X105.945 Y101.445 E1.21249 ; infill
G1 X105.945 Y129.535 E1.21163 ; infill
G1 E-.28 F4800 ; retract
;WIPE_START
G1 F600
G1 X105.945 Y128.535 E-.12 ; wipe and retract
;WIPE_END
G1 X108.174 Y127.326
G1 E.4 F4800 ;  ; unretract
G1 F600
G1 X131.826 Y127.326 E1.02025 ; infill
G1 X131.826 Y103.674 E1.02025 ; infill
G1 X108.174 Y103.674 E1.02025 ; infill
G1 X108.174 Y127.306 E1.01939 ; infill
G1 E-.28 F4800 ; retract
;WIPE_START
G1 F600
G1 X108.174 Y126.306 E-.12 ; wipe and retract
;WIPE_END
G1 X110.402 Y125.098
G1 E.4 F4800 ;  ; unretract
G1 F600
G1 X129.598 Y125.098 E.82802 ; infill
M73 P0 R2641
G1 X129.598 Y105.902 E.82802 ; infill
M73 P0 R2641
G1 X110.402 Y105.902 E.82802 ; infill
G1 X110.402 Y125.078 E.82716 ; infill
G1 E-.28 F4800 ; retract
;WIPE_START
G1 F600
G1 X110.402 Y124.078 E-.12 ; wipe and retract
;WIPE_END
G1 X112.63 Y122.87
G1 E.4 F4800 ;  ; unretract
G1 F600
G1 X127.37 Y122.87 E.63579 ; infill
G1 X127.37 Y108.13 E.63579 ; infill
G1 X112.63 Y108.13 E.63579 ; infill
G1 X112.63 Y122.85 E.63492 ; infill
G1 E-.28 F4800 ; retract
;WIPE_START
G1 F600
G1 X112.63 Y121.85 E-.12 ; wipe and retract
;WIPE_END
G1 X114.858 Y120.642
G1 E.4 F4800 ;  ; unretract
G1 F600
G1 X125.142 Y120.642 E.44355 ; infill
G1 X125.142 Y110.358 E.44355 ; infill
G1 X114.858 Y110.358 E.44355 ; infill
G1 X114.858 Y120.622 E.44269 ; infill
G1 E-.28 F4800 ; retract
;WIPE_START
G1 F600
G1 X114.858 Y119.622 E-.12 ; wipe and retract
;WIPE_END
G1 X117.087 Y118.413
G1 E.4 F4800 ;  ; unretract
G1 F600
G1 X122.913 Y118.413 E.25132 ; infill
G1 X122.913 Y112.587 E.25132 ; infill
G1 X117.087 Y112.587 E.25132 ; infill
G1 X117.087 Y118.393 E.25045 ; infill
G1 E-.28 F4800 ; retract
;WIPE_START
G1 F600
G1 X117.087 Y117.393 E-.12 ; wipe and retract
;WIPE_END
G1 X119.315 Y116.185
G1 E.4 F4800 ;  ; unretract
G1 F600
G1 X120.685 Y116.185 E.05908 ; infill
G1 X120.685 Y114.815 E.05908 ; infill
G1 X119.315 Y114.815 E.05908 ; infill
G1 X119.315 Y116.165 E.05822 ; infill
G1 E-.28 F4800 ; retract
;WIPE_START
G1 F600
G1 X119.315 Y115.165 E-.12 ; wipe and retract
;WIPE_END
G1 X120.203 Y115.5
G1 E.4 F4800 ;  ; unretract
;WIDTH:0.449255
G1 F600
G1 X120.203 Y115.297 E.00639 ; infill
G1 X119.797 Y115.297 E.01278 ; infill
G1 X119.797 Y115.703 E.01278 ; infill
G1 X120.203 Y115.703 E.01278 ; infill
G1 X120.203 Y115.52 E.00576 ; infill
G1 E-.28 F4800 ; retract
;WIPE_START
G1 F600
G1 X120.203 Y115.703 E-.02198 ; wipe and retract
G1 X119.797 Y115.703 E-.04876 ; wipe and retract
G1 X119.797 Y115.297 E-.04876 ; wipe and retract
G1 X119.801 Y115.297 E-.0005 ; wipe and retract
;WIPE_END
G1 X118.758 Y114.258
G1 E.4 F4800 ;  ; unretract
;WIDTH:0.599999
G1 F600
G1 X118.758 Y116.742 E.10714 ; infill
G1 X121.242 Y116.742 E.10714 ; infill
G1 X121.242 Y114.258 E.10714 ; infill
G1 X118.778 Y114.258 E.10628 ; infill
G1 E-.28 F4800 ; retract
;WIPE_START
G1 F600
G1 X119.778 Y114.258 E-.12 ; wipe and retract
;WIPE_END
G1 X121.799 Y113.701
G1 E.4 F4800 ;  ; unretract
G1 F600
G1 X118.201 Y113.701 E.1552 ; infill
G1 X118.201 Y117.299 E.1552 ; infill
G1 X121.799 Y117.299 E.1552 ; infill
G1 X121.799 Y113.721 E.15434 ; infill
G1 E-.28 F4800 ; retract
;WIPE_START
G1 F600
G1 X121.799 Y114.721 E-.12 ; wipe and retract
;WIPE_END
G1 X124.027 Y111.473
G1 E.4 F4800 ;  ; unretract
G1 F600
G1 X115.973 Y111.473 E.34743 ; infill
G1 X115.973 Y119.527 E.34743 ; infill
G1 X124.027 Y119.527 E.34743 ; infill
G1 X124.027 Y111.493 E.34657 ; infill
G1 E-.28 F4800 ; retract
;WIPE_START
G1 F600
G1 X124.027 Y112.493 E-.12 ; wipe and retract
;WIPE_END
G1 X126.256 Y109.244
G1 E.4 F4800 ;  ; unretract
G1 F600
G1 X113.744 Y109.244 E.53967 ; infill
G1 X113.744 Y121.756 E.53967 ; infill
G1 X126.256 Y121.756 E.53967 ; infill
G1 X126.256 Y109.264 E.53881 ; infill
G1 E-.28 F4800 ; retract
;WIPE_START
G1 F600
G1 X126.256 Y110.264 E-.12 ; wipe and retract
;WIPE_END
G1 X128.484 Y107.016
G1 E.4 F4800 ;  ; unretract
G1 F600
G1 X111.516 Y107.016 E.7319 ; infill
G1 X111.516 Y123.984 E.7319 ; infill
G1 X128.484 Y123.984 E.7319 ; infill
G1 X128.484 Y107.036 E.73104 ; infill
G1 E-.28 F4800 ; retract
;WIPE_START
G1 F600
G1 X128.484 Y108.036 E-.12 ; wipe and retract
;WIPE_END
G1 X130.712 Y104.788
G1 E.4 F4800 ;  ; unretract
G1 F600
G1 X109.288 Y104.788 E.92414 ; infill
G1 X109.288 Y126.212 E.92414 ; infill
G1 X130.712 Y126.212 E.92414 ; infill
G1 X130.712 Y104.808 E.92327 ; infill
G1 E-.28 F4800 ; retract
;WIPE_START
G1 F600
G1 X130.712 Y105.808 E-.12 ; wipe and retract
;WIPE_END
G1 X132.941 Y102.559
G1 E.4 F4800 ;  ; unretract
G1 F600
G1 X107.059 Y102.559 E1.11637 ; infill
G1 X107.059 Y128.441 E1.11637 ; infill
G1 X132.941 Y128.441 E1.11637 ; infill
G1 X132.941 Y102.579 E1.11551 ; infill
M73 P0 R2640
G1 E-.28 F4800 ; retract
M73 P0 R2640
;WIPE_START
G1 F600
G1 X132.941 Y103.579 E-.12 ; wipe and retract
;WIPE_END
G1 X135.169 Y100.331
G1 E.4 F4800 ;  ; unretract
G1 F600
G1 X104.831 Y100.331 E1.30861 ; infill
G1 X104.831 Y130.669 E1.30861 ; infill
G1 X135.169 Y130.669 E1.30861 ; infill
G1 X135.169 Y100.351 E1.30774 ; infill
G1 E-.28 F4800 ; retract
;WIPE_START
G1 F600
G1 X135.169 Y101.351 E-.12 ; wipe and retract
;WIPE_END
G1 X137.397 Y98.103
G1 E.4 F4800 ;  ; unretract
G1 F600
G1 X102.603 Y98.103 E1.50084 ; infill
G1 X102.603 Y132.897 E1.50084 ; infill
G1 X137.397 Y132.897 E1.50084 ; infill
G1 X137.397 Y98.123 E1.49998 ; infill
G1 E-.28 F4800 ; retract
;WIPE_START
G1 F600
G1 X137.397 Y99.123 E-.12 ; wipe and retract
;WIPE_END
G1 X139.626 Y95.874
G1 E.4 F4800 ;  ; unretract
G1 F600
G1 X100.374 Y95.874 E1.69307 ; infill
G1 X100.374 Y135.126 E1.69307 ; infill
G1 X139.626 Y135.126 E1.69307 ; infill
G1 X139.626 Y95.894 E1.69221 ; infill
G1 E-.28 F4800 ; retract
;WIPE_START
G1 F600
G1 X139.626 Y96.894 E-.12 ; wipe and retract
;WIPE_END
G1 X141.854 Y93.646
G1 E.4 F4800 ;  ; unretract
G1 F600
G1 X98.146 Y93.646 E1.88531 ; infill
G1 X98.146 Y137.354 E1.88531 ; infill
G1 X141.854 Y137.354 E1.88531 ; infill
G1 X141.854 Y93.666 E1.88445 ; infill
M73 P0 R2639
G1 E-.28 F4800 ; retract
M73 P0 R2639
;WIPE_START
G1 F600
G1 X141.854 Y94.666 E-.12 ; wipe and retract
;WIPE_END
G1 X144.082 Y91.418
G1 E.4 F4800 ;  ; unretract
G1 F600
G1 X95.918 Y91.418 E2.07754 ; infill
G1 X95.918 Y139.582 E2.07754 ; infill
G1 X144.082 Y139.582 E2.07754 ; infill
G1 X144.082 Y91.438 E2.07668 ; infill
; stop printing object Куб id:0 copy 0
;LAYER_CHANGE
;Z:0.4
;HEIGHT:0.2

G1 E-.28 F4800 ; retract
;WIPE_START
G1 F600
G1 X144.082 Y92.438 E-.12 ; wipe and retract
;WIPE_END
EXCLUDE_OBJECT_END NAME=Куб_id_0_copy_0
TIMELAPSE_TAKE_FRAME
;_SET_FAN_SPEED_CHANGING_LAYER
; printing object Куб id:0 copy 0
EXCLUDE_OBJECT_START NAME=Куб_id_0_copy_0
G1 X126.12 Y139.333 Z.4 F1200 ; move to first perimeter point
